X:3114
T:Hr. Luno og havfruen
C:anon.
O:Denmark
Z:Transcribed by Frank Nordberg - http://www.musicaviva.com
F:http://abc.musicaviva.com/tunes/denmark/hr-luno-og-havfruen.abc
M:4/2 %org.: C|
L:1/2
K:Cmix
C|GG BB/B/|A/A/G AA|GE FF/F/|
w:Hr. Lu-no han la-der byg-ge et skib der kom ret al-drig p\aa
ED EE|DC DE/E/|F2 DE|
w:van-det slig. S\aa hen-ter de de-res guld op-p\aa
CC2 C/C/|G/G/A GG|AG cA/A/|FAG2|]
w:Gr\on-land. La-der byg-ge et skib der kom ret al-drig p\aa van-det slig.
"^v. 2.:"z/G/G/G/ BB/B/|AG "_etc."AA|
W:
W:Hr. Luno han lader bygge et skib
W:der kom ret aldrig p\aa vandet slig.
W:S\aa henter de deres guld opp\aa Gr\onland.
W:Lader bygge et skib
W:der kom ret aldrig p\aa vandet slig.
W:
W:
W:  From Musica Viva - http://www.musicaviva.com
W:  the Internet center for free sheet music downloads.
